PortableApps/LibreOfficePortable/App/libreoffice/help/media/icon-themes/svx/res/marker-elli11x9-5.svg

<svg viewBox="0 0 11 9" xmlns="http://www.w3.org/2000/svg">
  <path
     style="fill:#e78e46;opacity:0.66"
     d="M 5.5 1 C 3.014719 1 1 2.5670034 1 4.5 C 1 6.4329966 3.014719 8 5.5 8 C 7.985281 8 10 6.4329966 10 4.5 C 10 2.5670034 7.985281 1 5.5 1 z "
     />
  <path
     style="fill:#d46e1c;fill-opacity:1;opacity:0.9"
     d="M 5.5 0 C 2.462434 0 0 2.0147186 0 4.5 C 0 6.9852814 2.462434 9 5.5 9 C 8.537566 9 11 6.9852814 11 4.5 C 11 2.0147186 8.537566 0 5.5 0 z M 5.5 1 C 7.985281 1 10 2.5670034 10 4.5 C 10 6.4329966 7.985281 8 5.5 8 C 3.014719 8 1 6.4329966 1 4.5 C 1 2.5670034 3.014719 1 5.5 1 z "
     />
</svg>

<svg viewBox="0 0 11 9" xmlns="http://www.w3.org/2000/svg"><path d="m5.5 1c-2.485281 0-4.5 1.5670034-4.5 3.5s2.014719 3.5 4.5 3.5 4.5-1.5670034 4.5-3.5-2.014719-3.5-4.5-3.5z" fill="#e78e46" opacity=".66"/><path d="m5.5 0c-3.037566 0-5.5 2.0147186-5.5 4.5s2.462434 4.5 5.5 4.5 5.5-2.0147186 5.5-4.5-2.462434-4.5-5.5-4.5zm0 1c2.485281 0 4.5 1.5670034 4.5 3.5s-2.014719 3.5-4.5 3.5-4.5-1.5670034-4.5-3.5 2.014719-3.5 4.5-3.5z" fill="#d46e1c" opacity=".9"/></svg>
